SVG/L/L31.svg

<?xml version="1.0" encoding="UTF-8" standalone="no"?>
<svg
   xmlns:dc="http://purl.org/dc/elements/1.1/"
   xmlns:cc="http://creativecommons.org/ns#"
   xmlns:rdf="http://www.w3.org/1999/02/22-rdf-syntax-ns#"
   xmlns:svg="http://www.w3.org/2000/svg"
   xmlns="http://www.w3.org/2000/svg"
   xmlns:xlink="http://www.w3.org/1999/xlink"
   xmlns:sodipodi="http://sodipodi.sourceforge.net/DTD/sodipodi-0.dtd"
   xmlns:inkscape="http://www.inkscape.org/namespaces/inkscape"
   version="1.1"
   width="68.004562"
   height="28.3125"
   id="svg6435"
   inkscape:version="0.48.2 r9819"
   sodipodi:docname="L31.svg">
  <metadata
     id="metadata6446">
    <rdf:RDF>
      <cc:Work
         rdf:about="">
        <dc:format>image/svg+xml</dc:format>
        <dc:type
           rdf:resource="http://purl.org/dc/dcmitype/StillImage" />
        <dc:title />
        <cc:license
           rdf:resource="http://creativecommons.org/licenses/publicdomain/" />
      </cc:Work>
      <cc:License
         rdf:about="http://creativecommons.org/licenses/publicdomain/">
        <cc:permits
           rdf:resource="http://creativecommons.org/ns#Reproduction" />
        <cc:permits
           rdf:resource="http://creativecommons.org/ns#Distribution" />
        <cc:permits
           rdf:resource="http://creativecommons.org/ns#DerivativeWorks" />
      </cc:License>
    </rdf:RDF>
  </metadata>
  <defs
     id="defs6444" />
  <sodipodi:namedview
     pagecolor="#ffffff"
     bordercolor="#666666"
     borderopacity="1"
     objecttolerance="10"
     gridtolerance="10"
     guidetolerance="10"
     inkscape:pageopacity="0"
     inkscape:pageshadow="2"
     inkscape:window-width="719"
     inkscape:window-height="494"
     id="namedview6442"
     showgrid="false"
     inkscape:zoom="3.7941176"
     inkscape:cx="34.051669"
     inkscape:cy="18.156249"
     inkscape:window-x="0"
     inkscape:window-y="0"
     inkscape:window-maximized="0"
     inkscape:current-layer="svg6435"
     fit-margin-top="0"
     fit-margin-left="0.03"
     fit-margin-right="-0.1"
     fit-margin-bottom="0" />
  <symbol
     id="cable"
     width="30"
     height="68"
     transform="translate(19.05167,-23.84375)">
    <path
       d="m 15,8 5,5 3.6,5 1.4,5 -1.4,5 -3.6,5 -5,5 -5,5 -3.6,5 -1.4,5 1.4,5 3.6,5 5,5"
       style="fill:none;stroke:#c480ff;stroke-width:8;stroke-linecap:round"
       id="path6438"
       inkscape:connector-curvature="0" />
  </symbol>
  <use
     xlink:href="#cable"
     x="0"
     y="0"
     id="use6440"
     transform="matrix(0,1,-1,0,44.20792,-19.89542)"
     width="30"
     height="68" />
</svg>

<?xml version="1.0" encoding="UTF-8" standalone="no"?>
<svg
   xmlns:dc="http://purl.org/dc/elements/1.1/"
   xmlns:cc="http://creativecommons.org/ns#"
   xmlns:rdf="http://www.w3.org/1999/02/22-rdf-syntax-ns#"
   xmlns:svg="http://www.w3.org/2000/svg"
   xmlns="http://www.w3.org/2000/svg"
   xmlns:xlink="http://www.w3.org/1999/xlink"
   xmlns:sodipodi="http://sodipodi.sourceforge.net/DTD/sodipodi-0.dtd"
   xmlns:inkscape="http://www.inkscape.org/namespaces/inkscape"
   version="1.1"
   width="30"
   height="68"
   id="svg6435"
   inkscape:version="0.48.2 r9819"
   sodipodi:docname="L31.svg">
  <metadata
     id="metadata6446">
    <rdf:RDF>
      <cc:Work
         rdf:about="">
        <dc:format>image/svg+xml</dc:format>
        <dc:type
           rdf:resource="http://purl.org/dc/dcmitype/StillImage" />
        <dc:title></dc:title>
        <cc:license
           rdf:resource="http://creativecommons.org/licenses/publicdomain/" />
      </cc:Work>
      <cc:License
         rdf:about="http://creativecommons.org/licenses/publicdomain/">
        <cc:permits
           rdf:resource="http://creativecommons.org/ns#Reproduction" />
        <cc:permits
           rdf:resource="http://creativecommons.org/ns#Distribution" />
        <cc:permits
           rdf:resource="http://creativecommons.org/ns#DerivativeWorks" />
      </cc:License>
    </rdf:RDF>
  </metadata>
  <defs
     id="defs6444" />
  <sodipodi:namedview
     pagecolor="#ffffff"
     bordercolor="#666666"
     borderopacity="1"
     objecttolerance="10"
     gridtolerance="10"
     guidetolerance="10"
     inkscape:pageopacity="0"
     inkscape:pageshadow="2"
     inkscape:window-width="719"
     inkscape:window-height="494"
     id="namedview6442"
     showgrid="false"
     inkscape:zoom="3.7941176"
     inkscape:cx="15"
     inkscape:cy="34"
     inkscape:window-x="0"
     inkscape:window-y="0"
     inkscape:window-maximized="0"
     inkscape:current-layer="svg6435" />
  <symbol
     id="cable"
     width="30"
     height="68">
    <path
       d="M 15,8 20,13 23.6,18 25,23 23.6,28 20,33 15,38 10,43 6.4,48 5,53 6.4,58 10,63 15,68"
       style="fill:none;stroke:#c480ff;stroke-width:8;stroke-linecap:round"
       id="path6438" />
  </symbol>
  <use
     xlink:href="#cable"
     x="0"
     y="0"
     id="use6440" />
</svg>
